X:1
T:Weihnachtslieder
T:Christbaum
T:Peter Cornelius
T:Christbaum / The Christmas Tree
T:Nr. 1 aus Weihnachtslieder, Op. 8
T:CPDL - Creative Commons Attribution Non Commercial 3.0
T:CPDL - Creative Commons Attribution Non Commercial 3.0
T:CPDL - Creative Commons Attribution Non Commercial 3.0
T:CPDL - Creative Commons Attribution Non Commercial 3.0
T:CPDL - Creative Commons Attribution Non Commercial 3.0
C:Peter Cornelius
Z:Peter Cornelius
Z:CPDL - Creative Commons Attribution Non Commercial 3.0
%%score ( 1 2 ) { ( 3 5 7 ) | ( 4 6 ) }
L:1/8
Q:1/4=110
M:6/8
K:G
V:1 treble nm="Solo"
V:2 treble 
V:3 treble nm="Klavier"
V:5 treble 
V:7 treble 
V:4 bass 
V:6 bass 
V:1
"^Freudig lebhaft\nAllegro giojoso" z | z6 | z6 | z6 | z3 z2 D | B2 G c2 A | dec B2 d | F2 G AFD | %8
w: ||||Wie|schön ge- schmückt der|fest- li- che Raum! Die|Lich- ter fun- keln am|
w: ||||How|gai- ly decked the|scene doth ap- pear! How|bright- ly burn- ing the|
 G2 A B2 d | ^c3- cde | A3- A2 A | (d3 c)dc | B2 z z3 | z6 | z6 | z6 | z3 z2 D | B2 G cAc | %18
w: Weih- nachts- baum! O|fröh- * li- che|Zeit! _ O|se- * li- ger|Traum!||||Die|Mut- ter sitzt in der|
w: can- dles here! O|rap- * tur- ous|time, _ O|vi- * sion so|dear!||||The|moth- er sits with her|
 e2 c B2 d | F2 G AFD | G2 A B2 d | ^c3- cde | (A2 B) A3 | (d3 cd)c | B3 z2 G | G2 A BGA | %26
w: Kin- der- kreis; Nun|schwei- get al- les auf|ihr Ge- heiß: sie|sin- * get des|Christ- * kinds|Lob _ _ und|Preis. Und|rings vom Weih- * nachts-|
w: chil- dren there, who|si- lent wail with ex-|pec- tant air the|tale _ of the|Christ _ child,|yond _ _ com-|pare. A-|round, dis- played _ by|
 B2 c B2 B | d2 B A2 G | d2 B A2 G | c3- cdc | B3 F3 | (G3 AG)A | B3 z2 B | E2 F GEF | G2 A B2 B | %35
w: baum er- hellt, ist|schön in Bil- dern|auf- ge- stellt des|hei- * li- gen|Bu- ches|Pal- * * men-|welt. Die|Kin- der schau- en der|Bil- der Pracht und|
w: can- dle light, are|ma- ny col- ored|pic- tures bright of|Bib- * li- cal|scenes that|charm _ _ the|sight. The|chil- dren look at the|scenes un- rolled, and|
 d2 B A2 G | d2 B A2 G | (F3 GF)G | A3- AGA | (B3 A2) G | F2 z z2 D | BGB c2 A | dec B2 d | %43
w: ha- ben wohl des|Sin- gens acht, das|tönt _ _ so|süß _ in der|Wei- * he-|nacht! O|glück- li- cher Kreis im|fest- li- chen Raum! O|
w: hear the tale so|sweet- ly told, a|won- * * drous|tale _ of the|times _ of|old! O|cir- cle so bright, how|glad all ap- pear! O|
 F2 G AFD | G2 A B2 d | ^c3- cde | A3- A2 A | (d3 c)dc | B2 z z3 | z6 | z6 | z6 | z6 |] %53
w: gold- ne Lich- ter am|Weih- nachts- baum! O|fröh- * li- che|Zeit! _ O|se- * li- ger|Traum!|||||
w: gold- en can- dle light|gleam- ing here! O|rap- * tur- ous|time! _ O|vi- * sion so|dear!|||||
V:2
 x | x6 | x6 | x6 | x6 | x6 | x6 | x6 | x6 | x6 | x6 | x6 | x6 | x6 | x6 | x6 | x6 | x6 | x6 | x6 | %20
w: ||||||||||||||||||||
w: ||||||||||||||||||||
 x6 | x6 | x3 A2 A | x6 | x6 | x6 | x6 | x6 | x6 | x6 | x6 | x6 | x6 | x6 | x6 | x6 | x6 | x6 | %38
w: ||||||||||||||||||
w: ||* be~\-||||||||||||||||
 x6 | x6 | x6 | x6 | x6 | x6 | x6 | x6 | x6 | x6 | x6 | x6 | x6 | x6 | x6 |] %53
w: |||||||||||||||
w: |||||||||||||||
V:3
 D | ([GB]2 G) ([Fc]2 A) | ([Bd]2 [GB]) (g2 d) | (b2 g) (ded) | [Ac]3 B z z | (BGB cAc | dec BdB) | %7
 (FDG AFD | GDA BGd) | (^c2 g f2 e) | (e2 d =cAF) | ([GB]3 ABA) | G2 z z3 | ([GB]2 G) ([Fc]2 A) | %14
 ([Bd]2 [GB]) (g2 d) | (b2 g d!>!ed) | [Ac]3 B z2 | (GDG AEA | cAc BGB) | (FDG AFD) | (GDA BGd) | %21
 (^c2 g f2 e) | (e2 d =cAF) | ([GB]3 ABA) | G2 z z3 | ([EG]2 [FA] [GB]G[FA]) | %26
 ([GB]2 [ce]) (e2 B) | (d2 B A2 G) | (d2 B A2 G) | (cA^G ABc | B^c^d cBF) | (G3 AGA | BFG AGF) | %33
 ([EG]2 [FA] [GB][EG][FA]) | ([GB]2 [ce]) (e2 B) | (d2 B A2 G) | (d2 B A2 G) | (FDF GFG) | %38
 ([FA]3- [FA][EG][FA]) | ([GB]3 [GA^c]2 [Gce] | [FAd]3- [FAd]2) z | (BGB c2 A) | (dec BdB) | %43
 (FDG AFD) | (GDA BGd) | (^c2 g f2 e) | (e2 d =cAF) | ([GB]3 ABA) | G2 z z3 | ([GB]2 G) ([Fc]2 A) | %50
 ([Bd]2 [GB]) (g2 d) | (b2 g) (dBG) | (B2 A) G2 z |] %53
V:4
!mf! z |!<(! (D,2 G,) (D,2 A,) | (D,2 B,) B,(!>!ED)!<)! |!f! D(!>!ED) B,3 | (D!>!ED) D z z | %5
!mf! (G,3 A,3 | !arpeggio!C2 A, G,3) | (D,2 E, F,2 C) | (B,2 F, G,2 B,) | %9
"^hervortretend\nmarcato" !arpeggio![A,,E,^C]3 !arpeggio![A,,E,C]3 | [D,A,=C]6 | D,6- | %12
 D,(!>!E,D, C,!>!E,D,) |!mf!!<(! (D,2 G,) (D,2 A,) | (D,2 B,) B,(!>!ED)!<)! |!f! D(!>!ED) B,3 | %16
 (D!>!ED) D z2 |!mf! G,6 | F,3 G,3 | (D,2 E, F,2 C) | (B,2 F, G,2 B,) | %21
"^hervortretend\nmarcato" !arpeggio![A,,E,^C]3 !arpeggio![A,,E,C]3 | [D,A,=C]6 | D,6- | %24
 D,!>!E,D, (D,!>!G,E,) |!p! [E,,E,]6 | (B,2 A, G,3) |!mf!!>(! F,3 (A,2!>)! B,) | %28
!mf!!>(! (B,2 F,) (A,2!>)! B,) | (A,3 !arpeggio!CB,A, |!<(! F,3-!<)!!>(! F,2 B,)!>)! | %31
 (B,3!<(! A,B,A,!<)! | F,3!>(! ^D,3)!>)! |!p! [E,,E,]6 | (B,2 A, G,3) |!mf!!>(! F,3 (A,2!>)! B,) | %36
!mf!!>(! (B,2 F, A,3)!>)! |!p!!<(! (A,3 E,3)!<)! | (C3 A,3) |!<(! (G,3 E,3)!<)! | %40
 [D,A,]3- ([D,A,]!>![A,C][F,A,]) |!mf! (G,3 A,3) | (!arpeggio!C2 A, G,3) | (D,2 E, F,2 C) | %44
 (B,2 F, G,2 B,) |"^hervortretend\nmarcato" !arpeggio![A,,E,^C]3 !arpeggio![A,,E,C]3 | [D,A,=C]6 | %47
!>(! D,6-!>)! |!mf! (D,!>!E,D, C,!>!E,D,) |!<(! (D,2 G,) (D,2 A,) | (D,2 B,) B,(!>!ED)!<)! | %51
!f! D(!>!ED) (B,2 C) | [D,,D,]3 [G,,D,]2 z |] %53
V:5
 x | z (!>!ED) z (!>!ED) | G(!>!ED) [Gd]3 | [Bd]3 G3 | (G2 F) G(!>!ED) | [B,D]3 [DF]3 | F3 D3 | %7
 z D2- D3 | z D2- D3 | G3 [G^c]3 | F6 | z (!>!ED) ([CF]3 | B,)(!>!ED C!>!ED) | %13
 z (!>!ED) z (!>!ED) | G(ED) [Gd]3 | [Bd]3 G3 | (G2 F) G(!>!ED) | B,3 C3 | D6 | z D2- D3 | %20
 z D2- D3 | G3 [G^c]3 | F6 | z !>!ED (([CF]3 | [B,G]))(!>!ED) (D!>!GE) | z B,2- B, E2 | z x2 BGE | %27
 z D2 z E2 | z D2 z E2- | E6 | ^D6 | E^DE- E3 | ^D3 B,3 | z B,2- B, E2 | z x2 (BGE) | z D2 z E2 | %36
 z D2 z E2 | z D2- D3 | z ED- D3 | z (ED) D3 | z (ED) (D!>!ED) | [B,D]3 [DF]3 | F3 D3 | z D2- D3 | %44
 z D2- D3 | G3 [G^c]3 | F6 | z (ED) ([CF]3 | (B,)!>!ED C!>!ED) | z !>!ED z !>!ED | G!>!ED [Gd]3 | %51
 [Bd]3 G3 | F3 [B,G]2 x |] %53
V:6
 x | G,,3 G,,3 | G,,3 B,,3 | D,3 D,3 | D,3 G,(!>!E,D,) | [G,,D,]6 | G,,6 | D,6 | D,6 | x6 | x6 | %11
 D,3 D,,3 | G,,2 z z3 | G,,3 G,,3 | G,,3 B,,3 | D,3 D,3 | D,3 G,(!>!E,D,) | [G,,D,]6 | [G,,D,]6 | %19
 D,6 | D,6 | x6 | x6 | D,3 D,,3 | G,,2 z z3 | x6 | E,6 | B,,3 (C,2 E,) | B,,3 (C,2 E,) | %29
 A,,3 A,,3 | B,,6 | E,3 C,3 | B,,6 | x6 | E,6 | B,,3 (C,2 E,) | B,,3 (C,2 ^C,) | D,6 | D,6 | D,6 | %40
 x6 | [G,,D,]6 | G,,3 G,,3 | D,6 | D,6 | x6 | x6 | D,3 D,,3 | G,,3 z3 | G,,3 G,,3 | G,,3 B,,3 | %51
 D,3 D,3 | x6 |] %53
V:7
 x | x6 | x6 | x6 | x6 | x6 | x6 | x6 | x6 | x6 | x6 | x6 | x6 | x6 | x6 | x6 | x6 | x6 | x6 | x6 | %20
 x6 | x6 | x6 | x6 | x6 | x6 | x E2- E3 | x6 | x6 | x6 | x6 | x6 | x6 | x6 | x E2- E3 | x6 | x6 | %37
 x6 | x6 | x6 | x6 | x6 | x6 | x6 | x6 | x6 | x6 | x6 | x6 | x6 | x6 | x6 | (D!>!EC) x3 |] %53

